app/images/icons/preference-3.svg

<svg xmlns="http://www.w3.org/2000/svg" fill="none" viewBox="0 0 80 80"><defs/><g fill="#CA6D38" clip-path="url(#clip0)"><path d="M44.4116 75h-.0122c-.3442 0-.6177.2796-.6177.6251 0 .3454.2856.625.6299.625.3466 0 .6249-.2796.6249-.625 0-.3455-.2783-.6251-.6249-.6251zM76.2499 8.12488c-.3455 0-.6249.27943-.6249.6249 0 .34546.2794.62505.6249.62505 1.3793 0 2.5001 1.12117 2.5001 2.50007s-1.1208 2.5-2.5001 2.5c-.3455 0-.6249.2796-.6249.6251s.2794.6249.6249.6249c2.0679 0 3.75-1.6821 3.75-3.75 0-2.06793-1.6821-3.75002-3.75-3.75002z"/><path d="M79.3749 11.2499c-.3455 0-.6249.2796-.6249.625v50.0003c0 .3454.2794.625.6249.625.3454 0 .6249-.2797.6249-.6252V11.8749c0-.3454-.2795-.625-.6249-.625zM76.25 14.375h-4.3749c-.3457 0-.6251.2796-.6251.6251 0 .3454.2794.6249.6251.6249H76.25c.3454 0 .625-.2795.625-.6249 0-.3455-.2796-.6251-.625-.6251zM76.25 8.125H3.75005c-.34546 0-.62505.27944-.62505.6249s.27959.62505.62505.62505H76.25c.3455 0 .6251-.27959.6251-.62505s-.2796-.6249-.6251-.6249zM76.25 64.3751h-4.3749c-.3457 0-.6251.2796-.6251.6251 0 .3454.2794.6249.6251.6249H76.25c.3454 0 .625-.2795.625-.6249 0-.3455-.2796-.6251-.625-.6251zM69.3752 58.1251H3.75005c-.34546 0-.62505.2796-.62505.6249 0 .3456.27959.6251.62505.6251H69.3752c.3453 0 .6249-.2795.6249-.6251 0-.3453-.2796-.6249-.6249-.6249z"/><path d="M79.3749 61.25c-.3455 0-.6249.2794-.6249.6249 0 1.3795-1.1208 2.5001-2.5001 2.5001-.3455 0-.6249.2796-.6249.625 0 .3455.2794.6249.6249.6249 2.0679 0 3.75-1.6821 3.7499-3.75 0-.3455-.2795-.6249-.6249-.6249zM3.75001 58.1251c-1.37887 0-2.50006-1.1207-2.50006-2.5 0-.3455-.279591-.6251-.625053-.6251C.279436 55 0 55.2796 0 55.6251c0 2.0679 1.68209 3.75 3.75001 3.75.34546 0 .6249-.2795.62505-.6251 0-.3453-.27959-.6249-.62505-.6249zM71.8751 14.375c-.3457 0-.6251.2796-.6251.6251v50c0 .3455.2794.6249.6251.6249.3453 0 .6249-.2794.6249-.6249v-50c0-.3455-.2796-.6251-.6249-.6251zM3.75001 8.12495c-1.37887 0-2.50006-1.12135-2.50006-2.50006 0-1.37872 1.12134-2.50006 2.50006-2.50006.34546 0 .62505-.27944.62505-.6249s-.27959-.62505-.62505-.62505C1.68209 1.87488 0 3.55713 0 5.62504c0 2.06792 1.68209 3.75001 3.75001 3.75001.34546 0 .62505-.27975.62505-.62521 0-.34546-.27959-.62489-.62505-.62489z"/><path d="M8.12512 1.87488H3.75005c-.34546 0-.62505.27959-.62505.62505s.27959.6249.62505.6249h4.37491c.34546 0 .62505-.27944.62505-.6249s-.27943-.62505-.62489-.62505z"/><path d="M8.12481 1.87488c-.34546 0-.62505.27959-.62505.62505v3.75001c0 .34546.27959.62506.62505.62506s.62505-.2796.6249-.62506V2.49993c0-.34546-.27944-.62505-.6249-.62505zM.624897 5C.279436 5 0 5.27959 0 5.62505V55.6251c0 .3455.279436.6249.624897.6249.345462 0 .625053-.2794.625053-.6249V5.62505C1.24995 5.27959.970359 5 .624897 5zM14.3751 16.875c-.3455 0-.6251.2796-.6251.6251V23.75c0 .3454.2796.625.6251.625.3454 0 .6249-.2796.625-.625v-6.2499c0-.3455-.2796-.6251-.625-.6251zM14.3751 26.8751c-.3455 0-.6251.2795-.6251.6249v5.0001c0 .3455.2796.6249.6251.6249.3454 0 .6249-.2796.625-.6249V27.5c0-.3454-.2796-.6249-.625-.6249zM10.6251 31.875c-.3455 0-.6251.2796-.6251.6251V38.75c0 .3454.2796.625.6251.625.3454 0 .6249-.2796.6249-.625v-6.2499c0-.3455-.2795-.6251-.6249-.6251zM10.6251 41.8751c-.3455 0-.6251.2796-.6251.6249v5.0001c0 .3455.2796.6249.6251.6249.3454 0 .6249-.2794.6249-.6249V42.5c0-.3453-.2795-.6249-.6249-.6249z"/><path d="M25.625 16.875H14.453c-.3454 0-.6249.2796-.6249.6251 0 .3454.2795.6249.6249.6249h11.172c.3454 0 .6249-.2795.6249-.6249 0-.3455-.2795-.6251-.6249-.6251zM30.6251 31.875h-20c-.3455 0-.6251.2796-.6251.6251 0 .3454.2796.6249.6251.6249h20c.3454 0 .625-.2795.625-.6249 0-.3455-.2796-.6251-.625-.6251zM29.3751 46.8751h-18.75c-.3455 0-.6251.2796-.6251.6251 0 .3454.2796.6249.6251.6249h18.75c.3455 0 .6251-.2795.6251-.6249 0-.3455-.2796-.6251-.6251-.6251z"/><path d="M29.3751 30.6251c-.3455 0-.6251.2796-.6251.6251v1.2487c0 .3454.2796.6249.6251.6249.3454 0 .6249-.2795.625-.6249v-1.2487c0-.3455-.2796-.6251-.625-.6251zM46.8749 30.6251c-.3455 0-.6249.2796-.6249.6251v1.2487c0 .3454.2794.6249.6249.6249.3455 0 .625-.2795.6249-.6249v-1.2487c0-.3455-.2794-.6251-.6249-.6251zM29.3751 16.875c-.3455 0-.6251.2796-.6251.6251V27.5c0 .3454.2796.625.6251.625.3454 0 .6249-.2797.625-.625v-9.9999c0-.3455-.2796-.6251-.625-.6251zM38.1251 16.875c-.3455 0-.6251.2796-.6251.6251V27.5c0 .3454.2796.625.6251.625.3454 0 .625-.2797.625-.625v-9.9999c0-.3455-.2796-.6251-.625-.6251z"/><path d="M40.625 26.8751h-5.0001c-.3455 0-.6249.2795-.6249.6249 0 .3455.2794.6251.6249.6251h5.0001c.3455 0 .6249-.2796.6249-.6251 0-.3454-.2794-.6249-.6249-.6249zM31.8751 26.8751h-2.5c-.3455 0-.6251.2795-.6251.6249 0 .3455.2796.6251.6251.6251h2.5c.3455 0 .6251-.2796.6251-.6251 0-.3454-.2796-.6249-.6251-.6249zM46.8749 26.8751h-2.5001c-.3455 0-.625.2795-.625.6249 0 .3455.2795.6251.625.6251h2.5001c.3454 0 .6249-.2796.6249-.6251 0-.3454-.2795-.6249-.6249-.6249zM60.6251 16.875h-31.25c-.3455 0-.6251.2796-.6251.6251 0 .3454.2796.6249.6251.6249h31.25c.3454 0 .6249-.2795.6249-.6249 0-.3455-.2795-.6251-.6249-.6251z"/><path d="M46.8749 16.875c-.3455 0-.6249.2796-.6249.6251V27.5c0 .3454.2794.625.6249.625.3455 0 .625-.2797.6249-.625v-9.9999c0-.3455-.2794-.6251-.6249-.6251zM60.625 16.8749c-.3454 0-.625.2796-.625.625V51.25c0 .3455.2796.6249.625.6249.3455 0 .6249-.2794.6249-.6249V17.4999c0-.3454-.2794-.625-.6249-.625z"/><path d="M60.625 31.875H34.3749c-.3455 0-.6249.2796-.6249.6251 0 .3454.2794.6249.6249.6249H60.625c.3454 0 .6249-.2795.6249-.6249 0-.3455-.2795-.6251-.6249-.6251zM29.3751 46.875c-.3455 0-.6251.2796-.6251.6251v3.75c0 .3454.2796.6249.6251.6249.3454 0 .6249-.2795.625-.6249v-3.75c0-.3455-.2796-.6251-.625-.6251z"/><path d="M60.6251 50.6251h-31.25c-.3455 0-.6251.2795-.6251.6249 0 .3455.2796.6249.6251.6249h31.25c.3454 0 .6249-.2794.6249-.6249 0-.3454-.2795-.6249-.6249-.6249zM29.3751 41.8751c-.3455 0-.6251.2796-.6251.6249v5.0001c0 .3455.2796.6249.6251.6249.3454 0 .6249-.2794.625-.6249V42.5c0-.3453-.2796-.6249-.625-.6249zM16.8749 63.1251c-2.4121 0-4.3749 1.963-4.3749 4.3751 0 2.4121 1.9628 4.375 4.3749 4.375s4.3751-1.9629 4.3751-4.375c0-2.4121-1.963-4.3751-4.3751-4.3751zm0 7.5002c-1.7231 0-3.1249-1.4014-3.1249-3.1251 0-1.7237 1.4018-3.1251 3.1249-3.1251 1.7231 0 3.1251 1.4014 3.1251 3.1251 0 1.7237-1.402 3.1251-3.1251 3.1251z"/><path d="M12.089 65.625H8.12481c-.34546 0-.62505.2796-.62505.625 0 .3455.27959.6251.62505.6251H12.089c.3455 0 .6251-.2796.6251-.6251 0-.3454-.2796-.625-.6251-.625zM12.089 68.1251H8.12481c-.34546 0-.62505.2796-.62505.6251 0 .3454.27959.625.62505.625H12.089c.3455 0 .6251-.2796.6251-.625 0-.3455-.2796-.6251-.6251-.6251z"/><path d="M8.12501 68.1251c-.34484 0-.62506-.2806-.62506-.6249 0-.3442.28022-.6249.62506-.6249.3453 0 .62489-.2795.62489-.625s-.27943-.6251-.62489-.6251c-1.03389 0-1.87501.8412-1.87501 1.875 0 1.0339.84112 1.875 1.87501 1.875.34546 0 .62489-.2795.62489-.625s-.27943-.6251-.62489-.6251zM16.8748 65.6252c-1.0341 0-1.875.8412-1.875 1.875 0 1.0339.8411 1.875 1.875 1.875 1.034 0 1.875-.8411 1.875-1.875 0-1.0338-.841-1.875-1.875-1.875zm0 2.4998c-.3449 0-.6249-.2807-.6249-.6249s.28-.6249.6249-.6249c.3448 0 .625.2807.625.6249s-.2802.6249-.625.6249zM50.6249 65.625H22.9075c-.3454 0-.625.2796-.625.625 0 .3455.2796.6251.625.6251h27.7174c.3454 0 .625-.2796.625-.6251 0-.3454-.2796-.625-.625-.625zM50.6249 68.1251H22.9075c-.3454 0-.625.2796-.625.6251 0 .3454.2796.625.625.625h27.7174c.3454 0 .625-.2796.625-.625 0-.3455-.2796-.6251-.625-.6251zM50.6251 73.1254H11.875c-.0751 0-.1496.0134-.2197.0389l-5.00007 1.875c-.24345.0928-.40523.3247-.40523.586s.16162.4931.40523.5859l5.00007 1.875c.0701.0255.1446.039.2197.039h38.7501c.3454 0 .625-.2795.625-.6248v-3.75c0-.3456-.2796-.625-.625-.625zm-.6249 3.7498H11.9886l-3.33382-1.2501 3.33382-1.2499h38.0116v2.5z"/><path d="M13.645 75.2784l-1.2501-1.875c-.191-.2879-.5786-.3659-.8666-.1732-.2874.1917-.365.5786-.1734.8666l1.25 1.875c.1203.1806.3187.2784.5207.2784.119 0 .2394-.0341.3461-.1052.2874-.1916.365-.5784.1733-.8666z"/><path d="M13.4717 75.1053c-.2889-.1931-.6764-.115-.8668.1732l-1.25 1.875c-.1916.2881-.114.675.1734.8666.1068.0709.227.105.3461.105.202 0 .4003-.0976.5205-.2782l1.2501-1.875c.1917-.2882.1141-.6749-.1733-.8666zM46.8749 73.1252c-.3455 0-.6249.2795-.6249.6251v3.75c0 .3455.2794.6249.6249.6249.3455 0 .625-.2794.6249-.6249v-3.75c0-.3456-.2794-.6251-.6249-.6251zM41.8751 73.1252c-.3455 0-.6251.2795-.6251.6251v3.75c0 .3455.2796.6249.6251.6249.3454 0 .625-.2794.6249-.6249v-3.75c0-.3456-.2795-.6251-.6249-.6251zM61.875 65.6239h-6.2499c-.3457 0-.6251.2796-.6251.6251v11.2512c0 .3455.2794.6249.6251.6249h6.2499c.3454 0 .6252-.2794.625-.6249V66.249c0-.3455-.2796-.6251-.625-.6251zm-.6251 11.2513H56.25V66.874h4.9999v10.0012z"/><path d="M60.6251 68.1251h-3.75c-.3455 0-.6251.2796-.6251.6251 0 .3454.2796.625.6251.625h3.75c.3454 0 .6249-.2796.6249-.625 0-.3455-.2795-.6251-.6249-.6251zM60.6251 74.3751h-3.75c-.3455 0-.6251.2796-.6251.6249 0 .3456.2796.6251.6251.6251h3.75c.3454 0 .6249-.2795.6249-.6251 0-.3453-.2795-.6249-.6249-.6249z"/></g><defs><clipPath id="clip0"><path fill="#fff" d="M0 0h80v80H0z"/></clipPath></defs></svg>

<svg width="80" height="80" viewBox="0 0 80 80" fill="none" xmlns="http://www.w3.org/2000/svg">
<g clip-path="url(#clip0)">
<path d="M44.4116 75H44.3994C44.0552 75 43.7817 75.2796 43.7817 75.6251C43.7817 75.9705 44.0673 76.2501 44.4116 76.2501C44.7582 76.2501 45.0365 75.9705 45.0365 75.6251C45.0365 75.2796 44.7582 75 44.4116 75Z" fill="#CA6D38"/>
<path d="M76.2499 8.12488C75.9044 8.12488 75.625 8.40431 75.625 8.74978C75.625 9.09524 75.9044 9.37483 76.2499 9.37483C77.6292 9.37483 78.75 10.496 78.75 11.8749C78.75 13.2538 77.6292 14.3749 76.2499 14.3749C75.9044 14.3749 75.625 14.6545 75.625 15C75.625 15.3455 75.9044 15.6249 76.2499 15.6249C78.3178 15.6249 79.9999 13.9428 79.9999 11.8749C79.9999 9.80697 78.3178 8.12488 76.2499 8.12488Z" fill="#CA6D38"/>
<path d="M79.3749 11.2499C79.0294 11.2499 78.75 11.5295 78.75 11.8749V61.8752C78.75 62.2206 79.0294 62.5002 79.3749 62.5002C79.7203 62.5002 79.9998 62.2205 79.9998 61.875V11.8749C79.9998 11.5295 79.7203 11.2499 79.3749 11.2499Z" fill="#CA6D38"/>
<path d="M76.25 14.375H71.8751C71.5294 14.375 71.25 14.6546 71.25 15.0001C71.25 15.3455 71.5294 15.625 71.8751 15.625H76.25C76.5954 15.625 76.875 15.3455 76.875 15.0001C76.875 14.6546 76.5954 14.375 76.25 14.375Z" fill="#CA6D38"/>
<path d="M76.25 8.125H3.75005C3.40459 8.125 3.125 8.40444 3.125 8.7499C3.125 9.09536 3.40459 9.37495 3.75005 9.37495H76.25C76.5955 9.37495 76.8751 9.09536 76.8751 8.7499C76.8751 8.40444 76.5955 8.125 76.25 8.125Z" fill="#CA6D38"/>
<path d="M76.25 64.3751H71.8751C71.5294 64.3751 71.25 64.6547 71.25 65.0002C71.25 65.3456 71.5294 65.6251 71.8751 65.6251H76.25C76.5954 65.6251 76.875 65.3456 76.875 65.0002C76.875 64.6547 76.5954 64.3751 76.25 64.3751Z" fill="#CA6D38"/>
<path d="M69.3752 58.1251H3.75005C3.40459 58.1251 3.125 58.4047 3.125 58.75C3.125 59.0956 3.40459 59.3751 3.75005 59.3751H69.3752C69.7205 59.3751 70.0001 59.0956 70.0001 58.75C70.0001 58.4047 69.7205 58.1251 69.3752 58.1251Z" fill="#CA6D38"/>
<path d="M79.3749 61.25C79.0294 61.25 78.75 61.5294 78.75 61.8749C78.75 63.2544 77.6292 64.375 76.2499 64.375C75.9044 64.375 75.625 64.6546 75.625 65C75.625 65.3455 75.9044 65.6249 76.2499 65.6249C78.3178 65.6249 79.9999 63.9428 79.9998 61.8749C79.9998 61.5294 79.7203 61.25 79.3749 61.25Z" fill="#CA6D38"/>
<path d="M3.75001 58.1251C2.37114 58.1251 1.24995 57.0044 1.24995 55.6251C1.24995 55.2796 0.970359 55 0.624897 55C0.279436 55 0 55.2796 0 55.6251C0 57.693 1.68209 59.3751 3.75001 59.3751C4.09547 59.3751 4.37491 59.0956 4.37506 58.75C4.37506 58.4047 4.09547 58.1251 3.75001 58.1251Z" fill="#CA6D38"/>
<path d="M71.8751 14.375C71.5294 14.375 71.25 14.6546 71.25 15.0001V65.0001C71.25 65.3456 71.5294 65.625 71.8751 65.625C72.2204 65.625 72.5 65.3456 72.5 65.0001V15.0001C72.5 14.6546 72.2204 14.375 71.8751 14.375Z" fill="#CA6D38"/>
<path d="M3.75001 8.12495C2.37114 8.12495 1.24995 7.0036 1.24995 5.62489C1.24995 4.24617 2.37129 3.12483 3.75001 3.12483C4.09547 3.12483 4.37506 2.84539 4.37506 2.49993C4.37506 2.15447 4.09547 1.87488 3.75001 1.87488C1.68209 1.87488 0 3.55713 0 5.62504C0 7.69296 1.68209 9.37505 3.75001 9.37505C4.09547 9.37505 4.37506 9.0953 4.37506 8.74984C4.37506 8.40438 4.09547 8.12495 3.75001 8.12495Z" fill="#CA6D38"/>
<path d="M8.12512 1.87488H3.75005C3.40459 1.87488 3.125 2.15447 3.125 2.49993C3.125 2.84539 3.40459 3.12483 3.75005 3.12483H8.12496C8.47042 3.12483 8.75001 2.84539 8.75001 2.49993C8.75001 2.15447 8.47058 1.87488 8.12512 1.87488Z" fill="#CA6D38"/>
<path d="M8.12481 1.87488C7.77935 1.87488 7.49976 2.15447 7.49976 2.49993V6.24994C7.49976 6.5954 7.77935 6.875 8.12481 6.875C8.47027 6.875 8.74986 6.5954 8.74971 6.24994V2.49993C8.74971 2.15447 8.47027 1.87488 8.12481 1.87488Z" fill="#CA6D38"/>
<path d="M0.624897 5C0.279436 5 0 5.27959 0 5.62505V55.6251C0 55.9706 0.279436 56.25 0.624897 56.25C0.970359 56.25 1.24995 55.9706 1.24995 55.6251V5.62505C1.24995 5.27959 0.970359 5 0.624897 5Z" fill="#CA6D38"/>
<path d="M14.3751 16.875C14.0296 16.875 13.75 17.1546 13.75 17.5001V23.75C13.75 24.0954 14.0296 24.375 14.3751 24.375C14.7205 24.375 15 24.0954 15.0001 23.75V17.5001C15.0001 17.1546 14.7205 16.875 14.3751 16.875Z" fill="#CA6D38"/>
<path d="M14.3751 26.8751C14.0296 26.8751 13.75 27.1546 13.75 27.5V32.5001C13.75 32.8456 14.0296 33.125 14.3751 33.125C14.7205 33.125 15 32.8454 15.0001 32.5001V27.5C15.0001 27.1546 14.7205 26.8751 14.3751 26.8751Z" fill="#CA6D38"/>
<path d="M10.6251 31.875C10.2796 31.875 10 32.1546 10 32.5001V38.75C10 39.0954 10.2796 39.375 10.6251 39.375C10.9705 39.375 11.25 39.0954 11.25 38.75V32.5001C11.25 32.1546 10.9705 31.875 10.6251 31.875Z" fill="#CA6D38"/>
<path d="M10.6251 41.8751C10.2796 41.8751 10 42.1547 10 42.5V47.5001C10 47.8456 10.2796 48.125 10.6251 48.125C10.9705 48.125 11.25 47.8456 11.25 47.5001V42.5C11.25 42.1547 10.9705 41.8751 10.6251 41.8751Z" fill="#CA6D38"/>
<path d="M25.625 16.875H14.453C14.1076 16.875 13.8281 17.1546 13.8281 17.5001C13.8281 17.8455 14.1076 18.125 14.453 18.125H25.625C25.9704 18.125 26.2499 17.8455 26.2499 17.5001C26.2499 17.1546 25.9704 16.875 25.625 16.875Z" fill="#CA6D38"/>
<path d="M30.6251 31.875H10.6251C10.2796 31.875 10 32.1546 10 32.5001C10 32.8455 10.2796 33.125 10.6251 33.125H30.6251C30.9705 33.125 31.2501 32.8455 31.2501 32.5001C31.2501 32.1546 30.9705 31.875 30.6251 31.875Z" fill="#CA6D38"/>
<path d="M29.3751 46.8751H10.6251C10.2796 46.8751 10 47.1547 10 47.5002C10 47.8456 10.2796 48.1251 10.6251 48.1251H29.3751C29.7206 48.1251 30.0002 47.8456 30.0002 47.5002C30.0002 47.1547 29.7206 46.8751 29.3751 46.8751Z" fill="#CA6D38"/>
<path d="M29.3751 30.6251C29.0296 30.6251 28.75 30.9047 28.75 31.2502V32.4989C28.75 32.8443 29.0296 33.1238 29.3751 33.1238C29.7205 33.1238 30 32.8443 30.0001 32.4989V31.2502C30.0001 30.9047 29.7205 30.6251 29.3751 30.6251Z" fill="#CA6D38"/>
<path d="M46.8749 30.6251C46.5294 30.6251 46.25 30.9047 46.25 31.2502V32.4989C46.25 32.8443 46.5294 33.1238 46.8749 33.1238C47.2204 33.1238 47.4999 32.8443 47.4998 32.4989V31.2502C47.4998 30.9047 47.2204 30.6251 46.8749 30.6251Z" fill="#CA6D38"/>
<path d="M29.3751 16.875C29.0296 16.875 28.75 17.1546 28.75 17.5001V27.5C28.75 27.8454 29.0296 28.125 29.3751 28.125C29.7205 28.125 30 27.8453 30.0001 27.5V17.5001C30.0001 17.1546 29.7205 16.875 29.3751 16.875Z" fill="#CA6D38"/>
<path d="M38.1251 16.875C37.7796 16.875 37.5 17.1546 37.5 17.5001V27.5C37.5 27.8454 37.7796 28.125 38.1251 28.125C38.4705 28.125 38.7501 27.8453 38.7501 27.5V17.5001C38.7501 17.1546 38.4705 16.875 38.1251 16.875Z" fill="#CA6D38"/>
<path d="M40.625 26.8751H35.6249C35.2794 26.8751 35 27.1546 35 27.5C35 27.8455 35.2794 28.1251 35.6249 28.1251H40.625C40.9705 28.1251 41.2499 27.8455 41.2499 27.5C41.2499 27.1546 40.9705 26.8751 40.625 26.8751Z" fill="#CA6D38"/>
<path d="M31.8751 26.8751H29.3751C29.0296 26.8751 28.75 27.1546 28.75 27.5C28.75 27.8455 29.0296 28.1251 29.3751 28.1251H31.8751C32.2206 28.1251 32.5002 27.8455 32.5002 27.5C32.5002 27.1546 32.2206 26.8751 31.8751 26.8751Z" fill="#CA6D38"/>
<path d="M46.8749 26.8751H44.3748C44.0293 26.8751 43.7498 27.1546 43.7498 27.5C43.7498 27.8455 44.0293 28.1251 44.3748 28.1251H46.8749C47.2203 28.1251 47.4998 27.8455 47.4998 27.5C47.4998 27.1546 47.2203 26.8751 46.8749 26.8751Z" fill="#CA6D38"/>
<path d="M60.6251 16.875H29.3751C29.0296 16.875 28.75 17.1546 28.75 17.5001C28.75 17.8455 29.0296 18.125 29.3751 18.125H60.6251C60.9705 18.125 61.25 17.8455 61.25 17.5001C61.25 17.1546 60.9705 16.875 60.6251 16.875Z" fill="#CA6D38"/>
<path d="M46.8749 16.875C46.5294 16.875 46.25 17.1546 46.25 17.5001V27.5C46.25 27.8454 46.5294 28.125 46.8749 28.125C47.2204 28.125 47.4999 27.8453 47.4998 27.5V17.5001C47.4998 17.1546 47.2204 16.875 46.8749 16.875Z" fill="#CA6D38"/>
<path d="M60.625 16.8749C60.2796 16.8749 60 17.1545 60 17.4999V51.25C60 51.5955 60.2796 51.8749 60.625 51.8749C60.9705 51.8749 61.2499 51.5955 61.2499 51.25V17.4999C61.2499 17.1545 60.9705 16.8749 60.625 16.8749Z" fill="#CA6D38"/>
<path d="M60.625 31.875H34.3749C34.0294 31.875 33.75 32.1546 33.75 32.5001C33.75 32.8455 34.0294 33.125 34.3749 33.125H60.625C60.9704 33.125 61.2499 32.8455 61.2499 32.5001C61.2499 32.1546 60.9704 31.875 60.625 31.875Z" fill="#CA6D38"/>
<path d="M29.3751 46.875C29.0296 46.875 28.75 47.1546 28.75 47.5001V51.2501C28.75 51.5955 29.0296 51.875 29.3751 51.875C29.7205 51.875 30 51.5955 30.0001 51.2501V47.5001C30.0001 47.1546 29.7205 46.875 29.3751 46.875Z" fill="#CA6D38"/>
<path d="M60.6251 50.6251H29.3751C29.0296 50.6251 28.75 50.9046 28.75 51.25C28.75 51.5955 29.0296 51.8749 29.3751 51.8749H60.6251C60.9705 51.8749 61.25 51.5955 61.25 51.25C61.25 50.9046 60.9705 50.6251 60.6251 50.6251Z" fill="#CA6D38"/>
<path d="M29.3751 41.8751C29.0296 41.8751 28.75 42.1547 28.75 42.5V47.5001C28.75 47.8456 29.0296 48.125 29.3751 48.125C29.7205 48.125 30 47.8456 30.0001 47.5001V42.5C30.0001 42.1547 29.7205 41.8751 29.3751 41.8751Z" fill="#CA6D38"/>
<path d="M16.8749 63.1251C14.4628 63.1251 12.5 65.0881 12.5 67.5002C12.5 69.9123 14.4628 71.8752 16.8749 71.8752C19.287 71.8752 21.25 69.9123 21.25 67.5002C21.25 65.0881 19.287 63.1251 16.8749 63.1251ZM16.8749 70.6253C15.1518 70.6253 13.75 69.2239 13.75 67.5002C13.75 65.7765 15.1518 64.3751 16.8749 64.3751C18.598 64.3751 20 65.7765 20 67.5002C20 69.2239 18.598 70.6253 16.8749 70.6253Z" fill="#CA6D38"/>
<path d="M12.089 65.625H8.12481C7.77935 65.625 7.49976 65.9046 7.49976 66.25C7.49976 66.5955 7.77935 66.8751 8.12481 66.8751H12.089C12.4345 66.8751 12.7141 66.5955 12.7141 66.25C12.7141 65.9046 12.4345 65.625 12.089 65.625Z" fill="#CA6D38"/>
<path d="M12.089 68.1251H8.12481C7.77935 68.1251 7.49976 68.4047 7.49976 68.7502C7.49976 69.0956 7.77935 69.3752 8.12481 69.3752H12.089C12.4345 69.3752 12.7141 69.0956 12.7141 68.7502C12.7141 68.4047 12.4345 68.1251 12.089 68.1251Z" fill="#CA6D38"/>
<path d="M8.12501 68.1251C7.78017 68.1251 7.49995 67.8445 7.49995 67.5002C7.49995 67.156 7.78017 66.8753 8.12501 66.8753C8.47031 66.8753 8.7499 66.5958 8.7499 66.2503C8.7499 65.9048 8.47047 65.6252 8.12501 65.6252C7.09112 65.6252 6.25 66.4664 6.25 67.5002C6.25 68.5341 7.09112 69.3752 8.12501 69.3752C8.47047 69.3752 8.7499 69.0957 8.7499 68.7502C8.7499 68.4047 8.47047 68.1251 8.12501 68.1251Z" fill="#CA6D38"/>
<path d="M16.8748 65.6252C15.8407 65.6252 14.9998 66.4664 14.9998 67.5002C14.9998 68.5341 15.8409 69.3752 16.8748 69.3752C17.9088 69.3752 18.7498 68.5341 18.7498 67.5002C18.7498 66.4664 17.9088 65.6252 16.8748 65.6252ZM16.8748 68.125C16.5299 68.125 16.2499 67.8443 16.2499 67.5001C16.2499 67.1559 16.5299 66.8752 16.8748 66.8752C17.2196 66.8752 17.4998 67.1559 17.4998 67.5001C17.4998 67.8443 17.2196 68.125 16.8748 68.125Z" fill="#CA6D38"/>
<path d="M50.6249 65.625H22.9075C22.5621 65.625 22.2825 65.9046 22.2825 66.25C22.2825 66.5955 22.5621 66.8751 22.9075 66.8751H50.6249C50.9703 66.8751 51.2499 66.5955 51.2499 66.25C51.2499 65.9046 50.9703 65.625 50.6249 65.625Z" fill="#CA6D38"/>
<path d="M50.6249 68.1251H22.9075C22.5621 68.1251 22.2825 68.4047 22.2825 68.7502C22.2825 69.0956 22.5621 69.3752 22.9075 69.3752H50.6249C50.9703 69.3752 51.2499 69.0956 51.2499 68.7502C51.2499 68.4047 50.9703 68.1251 50.6249 68.1251Z" fill="#CA6D38"/>
<path d="M50.6251 73.1254H11.875C11.7999 73.1254 11.7254 73.1388 11.6553 73.1643L6.65523 75.0393C6.41178 75.1321 6.25 75.364 6.25 75.6253C6.25 75.8866 6.41162 76.1184 6.65523 76.2112L11.6553 78.0862C11.7254 78.1117 11.7999 78.1252 11.875 78.1252H50.6251C50.9705 78.1252 51.2501 77.8457 51.2501 77.5004V73.7504C51.2501 73.4048 50.9705 73.1254 50.6251 73.1254ZM50.0002 76.8752H11.9886L8.65478 75.6251L11.9886 74.3752H50.0002V76.8752Z" fill="#CA6D38"/>
<path d="M13.645 75.2784L12.3949 73.4034C12.2039 73.1155 11.8163 73.0375 11.5283 73.2302C11.2409 73.4219 11.1633 73.8088 11.3549 74.0968L12.6049 75.9718C12.7252 76.1524 12.9236 76.2502 13.1256 76.2502C13.2446 76.2502 13.365 76.2161 13.4717 76.145C13.7591 75.9534 13.8367 75.5666 13.645 75.2784Z" fill="#CA6D38"/>
<path d="M13.4717 75.1053C13.1828 74.9122 12.7953 74.9903 12.6049 75.2785L11.3549 77.1535C11.1633 77.4416 11.2409 77.8285 11.5283 78.0201C11.6351 78.091 11.7553 78.1251 11.8744 78.1251C12.0764 78.1251 12.2747 78.0275 12.3949 77.8469L13.645 75.9719C13.8367 75.6837 13.7591 75.297 13.4717 75.1053Z" fill="#CA6D38"/>
<path d="M46.8749 73.1252C46.5294 73.1252 46.25 73.4047 46.25 73.7503V77.5003C46.25 77.8458 46.5294 78.1252 46.8749 78.1252C47.2204 78.1252 47.4999 77.8458 47.4998 77.5003V73.7503C47.4998 73.4047 47.2204 73.1252 46.8749 73.1252Z" fill="#CA6D38"/>
<path d="M41.8751 73.1252C41.5296 73.1252 41.25 73.4047 41.25 73.7503V77.5003C41.25 77.8458 41.5296 78.1252 41.8751 78.1252C42.2205 78.1252 42.5001 77.8458 42.5 77.5003V73.7503C42.5 73.4047 42.2205 73.1252 41.8751 73.1252Z" fill="#CA6D38"/>
<path d="M61.875 65.6239H55.6251C55.2794 65.6239 55 65.9035 55 66.249V77.5002C55 77.8457 55.2794 78.1251 55.6251 78.1251H61.875C62.2204 78.1251 62.5002 77.8457 62.5 77.5002V66.249C62.5 65.9035 62.2204 65.6239 61.875 65.6239ZM61.2499 76.8752H56.25V66.874H61.2499V76.8752Z" fill="#CA6D38"/>
<path d="M60.6251 68.1251H56.8751C56.5296 68.1251 56.25 68.4047 56.25 68.7502C56.25 69.0956 56.5296 69.3752 56.8751 69.3752H60.6251C60.9705 69.3752 61.25 69.0956 61.25 68.7502C61.25 68.4047 60.9705 68.1251 60.6251 68.1251Z" fill="#CA6D38"/>
<path d="M60.6251 74.3751H56.8751C56.5296 74.3751 56.25 74.6547 56.25 75C56.25 75.3456 56.5296 75.6251 56.8751 75.6251H60.6251C60.9705 75.6251 61.25 75.3456 61.25 75C61.25 74.6547 60.9705 74.3751 60.6251 74.3751Z" fill="#CA6D38"/>
</g>
<defs>
<clipPath id="clip0">
<rect width="80" height="80" fill="white"/>
</clipPath>
</defs>
</svg>
